public/logos/pse-logo-circle.svg

<svg fill="none" height="253" viewBox="0 0 255 253" width="255" xmlns="http://www.w3.org/2000/svg"><g fill="#171c1b"><path d="m127.333 252.221c-33.9941 0-65.9483-13.107-89.9876-36.903-24.034-23.801-37.2719137-55.444-37.2719137-89.097 0-33.6525 13.2379137-65.2956 37.2719137-89.0969 24.0339-23.8013 55.9935-36.902909 89.9876-36.902909 33.995 0 65.949 13.106909 89.989 36.902909 24.034 23.796 37.271 55.4391 37.271 89.0969 0 33.658-13.237 65.296-37.271 89.097-24.034 23.796-55.994 36.903-89.989 36.903zm0-245.63724c-32.2751 0-62.6174 12.44414-85.4411 35.04184s-35.39222 52.6396-35.39222 84.5954c0 31.956 12.56852 61.998 35.39222 84.596s53.166 35.042 85.4411 35.042c32.276 0 62.618-12.444 85.442-35.042s35.392-52.64 35.392-84.596c0-31.9558-12.568-61.9977-35.392-84.5954s-53.166-35.04184-85.442-35.04184z"/><path d="m36.6222 113.394-16.933-3.494 1.2799-6.082c.8889-4.2152 3.6575-6.3043 7.3151-5.5514l.3695.0743c3.6147.7476 5.3284 3.7641 4.4448 7.9801l-.4927 2.348 4.809.992-.7873 3.738zm-12.8792-6.559 5.5908 1.156.5302-2.529c.3695-1.755-.5141-3.033-2.1956-3.378-1.7244-.355-3.0257.467-3.3952 2.222z"/><path d="m40.4457 97.2168-15.9423-6.6382 2.6133-6.1558c1.6655-3.9236 4.4823-5.6309 8.0114-4.1622l.3481.1432c2.3187.9649 3.4005 2.6775 3.3898 4.8673l7.3472-1.633-1.7297 4.0773-6.5172 1.299-1.0925 2.5716 5.0714 2.1102-1.4941 3.5153zm-11.4386-8.9023 5.0714 2.1103 1.237-2.9162c.648-1.5217.0803-2.948-1.462-3.5842-1.5155-.631-2.9614-.0477-3.6093 1.474z"/><path d="m48.2803 80.6744-14.6357-8.8652 2.0136-3.2555 14.6356 8.8652z"/><path d="m55.4778 70.1719-16.4778-6.9988 2.5598-3.0064 13.3182 5.9119.5141-.6044-8.3326-11.7655 2.4848-2.9161 9.982 14.6339-4.0431 4.7507z"/><path d="m63.1842 61.1316-6.3351-16.7548 4.8571-3.8652 15.3265 9.5968-3.1167 2.4761-3.7486-2.423-5.5855 4.4484 1.6012 4.1304-3.0042 2.3913zm4.161-12.7782-5.7729-3.7327-.6801.5408 2.4795 6.3573z"/><path d="m74.6874 41.8585-.2356-.456c-1.9279-3.7539-1.553-8.9818 3.7432-11.6488 4.1717-2.0996 8.2149-1.0551 10.4533 2.386l-3.4594 1.7391c-1.221-1.6543-3.2934-1.9989-5.3659-.9544-2.7258 1.3732-3.2506 4.0932-1.7725 6.9776 1.4619 2.8419 4.0217 4.0296 6.8278 2.6193 2.1153-1.0658 3.1542-2.948 2.5437-4.9098l3.438-1.7285c1.3388 3.5312.0321 7.6085-4.3484 9.8142-5.5319 2.7837-10.073-.4082-11.8295-3.8334z"/><path d="m101.104 39.4612-1.7458-6.2088-.814.2227-7.6793-8.8228 3.8022-1.0498 5.4569 6.4686.723-.2015.953-8.2342 3.599-.9915-1.58 11.3784-.814.2227 1.746 6.2088z"/><path d="m123.135 33.613-.117-4.3266-4.156.1114-.08-3.0223 4.155-.1113-.117-4.3478 3.336-.0901.118 4.3478 4.182-.1114.08 3.0222-4.182.1114.118 4.3265z"/><path d="m141.434 31.2377 3.647.8006c-.284 1.2725.45 2.6034 2.816 3.123 2.089.456 3.412-.1803 3.696-1.4528.241-1.0657-.493-1.8716-2.496-2.5026l-1.237-.3924c-3.288-1.0074-5.007-3.3403-4.343-6.2936.712-3.1813 3.588-4.6235 7.326-3.8016 3.947.8642 5.826 3.5418 5.098 6.792l-3.674-.8059c.268-1.2036-.385-2.4708-2.131-2.8526-1.676-.3658-2.71.3818-2.956 1.474-.214.9544.23 1.8611 1.746 2.3118l1.258.3976c3.577 1.1188 5.762 3.4093 5.071 6.4792-.717 3.2025-3.823 4.7136-8.07 3.7804-4.568-1.0021-6.485-3.8334-5.762-7.0571z"/><path d="m160.327 32.5735.209-.4665c1.735-3.8441 6.072-6.8451 11.502-4.4432 4.268 1.8875 5.993 5.6574 4.702 9.5438l-3.539-1.5641c.535-1.983-.504-3.791-2.63-4.7295-2.79-1.2354-5.259.0689-6.587 3.0222-1.312 2.9109-.637 5.6309 2.239 6.9034 2.169.9597 4.295.5726 5.451-1.1294l3.519 1.5589c-1.928 3.2502-5.955 4.809-10.438 2.826-5.665-2.5026-6.013-8.0115-4.428-11.5163z"/><path d="m174.18 47.9768 14.716-10.3869 5.023 3.6479-5.408 17.1418-3.224-2.3382 1.398-4.2099-5.784-4.1993-3.615 2.598-3.111-2.2587zm13.544.684 2.152-6.4898-.701-.509-5.564 4.0137z"/><path d="m190.787 60.8925 12.504-11.6329 2.64 2.7837-10.036 9.3423 4.606 4.8515-2.469 2.2958-7.245-7.6298z"/><path d="m200.351 71.7032 13.902-9.9521 2.26 3.0912-13.902 9.9521z"/><path d="m205.711 78.8621 15.396-7.5025 2.79 5.6149-9.735 11.8768.144.2917 12.59-6.1346 1.596 3.2184-15.396 7.5025-2.811-5.6574 9.735-11.8768-.144-.2916-12.59 6.1346-1.58-3.176z"/><path d="m222.645 95.5321.503-.1167c4.215-.9597 9.206.912 10.486 6.4266 1.039 4.469-.948 8.191-4.734 9.432l-.862-3.717c1.761-.71 2.613-2.672 2.088-4.915-.675-2.9-3.267-4.1036-6.383-3.3931-3.278.7476-5.007 3.0491-4.274 6.2031.391 1.681 1.328 2.922 2.523 3.484l1.397-.318-1.006-4.332 2.704-.615 2.115 9.114-2.704.615-.316-1.362-2.838.647c-2.64-.881-4.52-3.171-5.286-6.464-1.376-5.944 2.442-9.7451 6.587-10.6889z"/><path d="m174.609 129.736c0 1.633-1.167 2.996-2.726 3.309-.219.047-.45.069-.685.069h-11.38c-1.885 0-3.411 1.511-3.411 3.377v11.267c0 1.167-.595 2.195-1.505 2.8-.364.244-.776.419-1.221.509-.219.042-.45.069-.685.069h-11.38c-1.885 0-3.411 1.511-3.411 3.377v11.267c0 1.866-1.527 3.378-3.412 3.378h-11.379c-1.885 0-3.411-1.512-3.411-3.378v-11.267c0-1.866 1.526-3.377 3.411-3.377h11.379c1.885 0 3.412-1.511 3.412-3.378v-11.267c0-1.866 1.526-3.377 3.411-3.377h11.38c1.885 0 3.411-1.511 3.411-3.378v-14.644c0-9.931-8.113-17.9852-18.138-18.0223-10.02.0371-18.138 8.0913-18.138 18.0223v14.644c0 1.867-1.526 3.378-3.411 3.378h-11.38c-1.885 0-3.411 1.511-3.411 3.377v29.289c0 1.866-1.526 3.378-3.4114 3.378h-11.3797c-1.885 0-3.4112-1.512-3.4112-3.378v-29.289c0-1.866 1.5262-3.377 3.4112-3.377h11.3797c1.8854 0 3.4114-1.511 3.4114-3.378v-14.708c0-19.8723 16.269-35.9802 36.34-35.9802s36.34 16.1079 36.34 35.9802z"/><path d="m127.333 205.493c-44.1478 0-80.0648-35.561-80.0648-79.272s35.917-79.2724 80.0648-79.2724c44.148 0 80.065 35.5614 80.065 79.2724s-35.917 79.272-80.065 79.272zm0-155.3631c-42.3752 0-76.8517 34.1351-76.8517 76.0911s34.4765 76.091 76.8517 76.091c42.376 0 76.852-34.135 76.852-76.091s-34.476-76.0911-76.852-76.0911z"/><path d="m32.5741 179.704 14.4911-9.103 5.6925 8.881-2.699 1.696-3.679-5.737-3.0738 1.93 3.4755 5.424-2.699 1.697-3.4755-5.424-3.3149 2.084 3.7647 5.875-2.699 1.696-5.7782-9.019z"/><path d="m41.3193 192.922 10.5122-1.792 2.4847-9.311 2.8544 3.091-1.703 6.018.3642.398 6.1745-1.177 2.7739 3.006-9.741 1.66-2.5598 10.201-2.8703-3.107 1.8421-6.903-.3802-.414-6.9831 1.336-2.774-3.006z"/><path d="m57.0261 208.818 10.4211-13.664 5.0071 3.744c3.4701 2.592 4.1931 5.964 1.9439 8.918l-.2249.297c-2.2224 2.916-5.714 3.165-9.1788.572l-1.9332-1.442-2.9614 3.881-3.0738-2.301zm11.4868-8.728-3.4434 4.513 2.0832 1.553c1.4459 1.082 2.9881.833 4.0217-.519 1.0603-1.395.8675-2.911-.5784-3.993z"/><path d="m72.8288 219.747 7.9524-15.053 3.4166 1.771-6.3834 12.083 5.955 3.086-1.5691 2.969-9.3715-4.851z"/><path d="m89.2478 218.856.15-.488c1.237-4.029 5.5319-7.433 11.3102-5.689 5.757 1.734 7.449 6.941 6.206 10.97l-.149.488c-1.125 3.653-5.404 7.497-11.3373 5.705-5.9389-1.792-7.3045-7.333-6.1799-10.986zm13.8542 3.934c.931-3.027-.338-5.768-3.4437-6.707-3.1007-.933-5.6765.647-6.6083 3.674-.8783 2.853.3213 5.743 3.4273 6.676 3.1006.933 5.7517-.795 6.6247-3.648z"/><path d="m111.268 233.118 1.478-17.068 6.721.573c4.284.365 6.79 2.492 6.464 6.272l-.032.371c-.215 2.482-1.527 4.03-3.637 4.687l3.829 6.421-4.45-.376-3.25-5.743-2.812-.238-.471 5.424-3.84-.329zm5.039-13.516-.471 5.424 3.187.271c1.66.143 2.854-.833 2.998-2.476.14-1.623-.867-2.805-2.527-2.948z"/><path d="m130.67 234.386 3.732-17.508 6.191-.684 7.738 16.241-3.973.44-1.848-4.035-7.128.784-.883 4.338-3.829.419zm10.437-8.574-2.849-6.219-.862.095-1.355 6.681 5.071-.557z"/><path d="m155.85 230.366-3.84-13.123-4.627 1.325-.937-3.197 12.981-3.722.937 3.197-4.653 1.331 3.839 13.123-3.7 1.06z"/><path d="m169.495 225.722-6.924-15.546 3.529-1.542 6.924 15.545z"/><path d="m174.491 214.662-.284-.43c-2.324-3.531-2.201-8.971 2.865-12.232 5.039-3.25 10.159-1.193 12.477 2.338l.284.43c2.105 3.197 2.33 8.913-2.87 12.264s-10.368.827-12.472-2.37zm11.942-7.98c-1.746-2.651-4.681-3.452-7.401-1.697-2.715 1.755-3.149 4.724-1.403 7.376 1.644 2.497 4.648 3.446 7.369 1.691 2.72-1.755 3.079-4.873 1.435-7.37z"/><path d="m199.896 207.095-12.344-11.802 4.391-4.502 14.582 5.048.231-.233-10.095-9.65 2.517-2.577 12.344 11.797-4.424 4.539-14.582-5.048-.23.233 10.094 9.65-2.479 2.545z"/><path d="m211.094 187.128 2.002-3.123c1.109.7 2.624.467 3.926-1.559 1.146-1.786.99-3.234-.123-3.934-.932-.588-1.95-.175-3.23 1.474l-.792 1.018c-2.078 2.72-4.879 3.521-7.454 1.898-2.78-1.744-3.171-4.915-1.114-8.117 2.168-3.378 5.349-4.215 8.188-2.434l-2.014 3.144c-1.049-.663-2.474-.482-3.433 1.013-.921 1.432-.562 2.651.391 3.25.836.525 1.848.419 2.79-.838l.804-1.039c2.281-2.948 5.2-4.199 7.877-2.518 2.796 1.76 3.176 5.164.841 8.801-2.506 3.908-5.848 4.73-8.665 2.959z"/><path d="m221.962 141.944-1.028 4.987c-.17.823.366 1.627 1.198 1.795l5.037 1.019c.832.168 1.644-.364 1.813-1.187l1.029-4.987c.17-.824-.367-1.627-1.199-1.796l-5.037-1.018c-.831-.168-1.643.363-1.813 1.187z"/><path d="m30.8972 140.756-5.037 1.018c-.8317.169-1.3682.972-1.1984 1.796l1.0284 4.987c.1698.823.9817 1.355 1.8133 1.186l5.0371-1.018c.8316-.168 1.3682-.972 1.1984-1.795l-1.0285-4.987c-.1698-.824-.9816-1.355-1.8133-1.187z"/></g></svg>

<svg width="255" height="253" viewBox="0 0 255 253" fill="none" xmlns="http://www.w3.org/2000/svg">
<g id="pse-logo-circle">
<g id="Vector">
<path d="M127.333 252.221C93.3389 252.221 61.3847 239.114 37.3454 215.318C13.3114 191.517 0.0734863 159.874 0.0734863 126.221C0.0734863 92.5685 13.3114 60.9254 37.3454 37.1241C61.3793 13.3228 93.3389 0.221191 127.333 0.221191C161.328 0.221191 193.282 13.3281 217.322 37.1241C241.356 60.9201 254.593 92.5632 254.593 126.221C254.593 159.879 241.356 191.517 217.322 215.318C193.288 239.114 161.328 252.221 127.333 252.221ZM127.333 6.58376C95.0579 6.58376 64.7156 19.0279 41.8919 41.6256C19.0682 64.2233 6.49968 94.2652 6.49968 126.221C6.49968 158.177 19.0682 188.219 41.8919 210.817C64.7156 233.415 95.0579 245.859 127.333 245.859C159.609 245.859 189.951 233.415 212.775 210.817C235.599 188.219 248.167 158.177 248.167 126.221C248.167 94.2652 235.599 64.2233 212.775 41.6256C189.951 19.0279 159.609 6.58376 127.333 6.58376Z" fill="#171C1B"/>
<path d="M36.6222 113.394L19.6892 109.9L20.9691 103.818C21.858 99.6028 24.6266 97.5137 28.2842 98.2666L28.6537 98.3409C32.2684 99.0885 33.9821 102.105 33.0985 106.321L32.6058 108.669L37.4148 109.661L36.6275 113.399L36.6222 113.394ZM23.743 106.835L29.3338 107.991L29.864 105.462C30.2335 103.707 29.3499 102.429 27.6684 102.084C25.944 101.729 24.6427 102.551 24.2732 104.306L23.743 106.835Z" fill="#171C1B"/>
<path d="M40.4457 97.2168L24.5034 90.5786L27.1167 84.4228C28.7822 80.4992 31.599 78.7919 35.1281 80.2606L35.4762 80.4038C37.7949 81.3687 38.8767 83.0813 38.866 85.2711L46.2132 83.6381L44.4835 87.7154L37.9663 89.0144L36.8738 91.586L41.9452 93.6962L40.4511 97.2115L40.4457 97.2168ZM29.0071 88.3145L34.0785 90.4248L35.3155 87.5086C35.9635 85.9869 35.3958 84.5606 33.8535 83.9244C32.338 83.2934 30.8921 83.8767 30.2442 85.3984L29.0071 88.3145Z" fill="#171C1B"/>
<path d="M48.2803 80.6744L33.6446 71.8092L35.6582 68.5537L50.2938 77.4189L48.2803 80.6744Z" fill="#171C1B"/>
<path d="M55.4778 70.1719L39 63.1731L41.5598 60.1667L54.878 66.0786L55.3921 65.4742L47.0595 53.7087L49.5443 50.7926L59.5263 65.4265L55.4832 70.1772L55.4778 70.1719Z" fill="#171C1B"/>
<path d="M63.1842 61.1316L56.8491 44.3768L61.7062 40.5116L77.0327 50.1084L73.916 52.5845L70.1674 50.1615L64.5819 54.6099L66.1831 58.7403L63.1789 61.1316H63.1842ZM67.3452 48.3534L61.5723 44.6207L60.8922 45.1615L63.3717 51.5188L67.3452 48.3534Z" fill="#171C1B"/>
<path d="M74.6874 41.8585L74.4518 41.4025C72.5239 37.6486 72.8988 32.4207 78.195 29.7537C82.3667 27.6541 86.4099 28.6986 88.6483 32.1397L85.1889 33.8788C83.9679 32.2245 81.8955 31.8799 79.823 32.9244C77.0972 34.2976 76.5724 37.0176 78.0505 39.902C79.5124 42.7439 82.0722 43.9316 84.8783 42.5213C86.9936 41.4555 88.0325 39.5733 87.422 37.6115L90.86 35.883C92.1988 39.4142 90.8921 43.4915 86.5116 45.6972C80.9797 48.4809 76.4386 45.289 74.6821 41.8638L74.6874 41.8585Z" fill="#171C1B"/>
<path d="M101.104 39.4612L99.3582 33.2524L98.5442 33.4751L90.8649 24.6523L94.6671 23.6025L100.124 30.0711L100.847 29.8696L101.8 21.6354L105.399 20.6439L103.819 32.0223L103.005 32.245L104.751 38.4538L101.104 39.4612Z" fill="#171C1B"/>
<path d="M123.135 33.613L123.018 29.2864L118.862 29.3978L118.782 26.3755L122.937 26.2642L122.82 21.9164L126.156 21.8263L126.274 26.1741L130.456 26.0627L130.536 29.0849L126.354 29.1963L126.472 33.5228L123.135 33.613Z" fill="#171C1B"/>
<path d="M141.434 31.2377L145.081 32.0383C144.797 33.3108 145.531 34.6417 147.897 35.1613C149.986 35.6173 151.309 34.981 151.593 33.7085C151.834 32.6428 151.1 31.8369 149.097 31.2059L147.86 30.8135C144.572 29.8061 142.853 27.4732 143.517 24.5199C144.229 21.3386 147.105 19.8964 150.843 20.7183C154.79 21.5825 156.669 24.2601 155.941 27.5103L152.267 26.7044C152.535 25.5008 151.882 24.2336 150.136 23.8518C148.46 23.486 147.426 24.2336 147.18 25.3258C146.966 26.2802 147.41 27.1869 148.926 27.6376L150.184 28.0352C153.761 29.154 155.946 31.4445 155.255 34.5144C154.538 37.7169 151.432 39.228 147.185 38.2948C142.617 37.2927 140.7 34.4614 141.423 31.2377H141.434Z" fill="#171C1B"/>
<path d="M160.327 32.5735L160.536 32.107C162.271 28.2629 166.608 25.2619 172.038 27.6638C176.306 29.5513 178.031 33.3212 176.74 37.2076L173.201 35.6435C173.736 33.6605 172.697 31.8525 170.571 30.914C167.781 29.6786 165.312 30.9829 163.984 33.9362C162.672 36.8471 163.347 39.5671 166.223 40.8396C168.392 41.7993 170.518 41.4122 171.674 39.7102L175.193 41.2691C173.265 44.5193 169.238 46.0781 164.755 44.0951C159.09 41.5925 158.742 36.0836 160.327 32.5788V32.5735Z" fill="#171C1B"/>
<path d="M174.18 47.9768L188.896 37.5899L193.919 41.2378L188.511 58.3796L185.287 56.0414L186.685 51.8315L180.901 47.6322L177.286 50.2302L174.175 47.9715L174.18 47.9768ZM187.724 48.6608L189.876 42.171L189.175 41.662L183.611 45.6757L187.724 48.6608Z" fill="#171C1B"/>
<path d="M190.787 60.8925L203.291 49.2596L205.931 52.0433L195.895 61.3856L200.501 66.2371L198.032 68.5329L190.787 60.9031V60.8925Z" fill="#171C1B"/>
<path d="M200.351 71.7032L214.253 61.7511L216.513 64.8423L202.611 74.7944L200.351 71.7032Z" fill="#171C1B"/>
<path d="M205.711 78.8621L221.107 71.3596L223.897 76.9745L214.162 88.8513L214.306 89.143L226.896 83.0084L228.492 86.2268L213.096 93.7293L210.285 88.0719L220.02 76.1951L219.876 75.9035L207.286 82.0381L205.706 78.8621H205.711Z" fill="#171C1B"/>
<path d="M222.645 95.5321L223.148 95.4154C227.363 94.4557 232.354 96.3274 233.634 101.842C234.673 106.311 232.686 110.033 228.9 111.274L228.038 107.557C229.799 106.847 230.651 104.885 230.126 102.642C229.451 99.742 226.859 98.5384 223.743 99.2489C220.465 99.9965 218.736 102.298 219.469 105.452C219.86 107.133 220.797 108.374 221.992 108.936L223.389 108.618L222.383 104.286L225.087 103.671L227.202 112.785L224.498 113.4L224.182 112.038L221.344 112.685C218.704 111.804 216.824 109.514 216.058 106.221C214.682 100.277 218.5 96.4759 222.645 95.5321Z" fill="#171C1B"/>
<path d="M174.609 129.736C174.609 131.369 173.442 132.732 171.883 133.045C171.664 133.092 171.433 133.114 171.198 133.114H159.818C157.933 133.114 156.407 134.625 156.407 136.491V147.758C156.407 148.925 155.812 149.953 154.902 150.558C154.538 150.802 154.126 150.977 153.681 151.067C153.462 151.109 153.231 151.136 152.996 151.136H141.616C139.731 151.136 138.205 152.647 138.205 154.513V165.78C138.205 167.646 136.678 169.158 134.793 169.158H123.414C121.529 169.158 120.003 167.646 120.003 165.78V154.513C120.003 152.647 121.529 151.136 123.414 151.136H134.793C136.678 151.136 138.205 149.625 138.205 147.758V136.491C138.205 134.625 139.731 133.114 141.616 133.114H152.996C154.881 133.114 156.407 131.603 156.407 129.736V115.092C156.407 105.161 148.294 97.1068 138.269 97.0697C128.249 97.1068 120.131 105.161 120.131 115.092V129.736C120.131 131.603 118.605 133.114 116.72 133.114H105.34C103.455 133.114 101.929 134.625 101.929 136.491V165.78C101.929 167.646 100.403 169.158 98.5176 169.158H87.1379C85.2529 169.158 83.7267 167.646 83.7267 165.78V136.491C83.7267 134.625 85.2529 133.114 87.1379 133.114H98.5176C100.403 133.114 101.929 131.603 101.929 129.736V115.028C101.929 95.1557 118.198 79.0478 138.269 79.0478C158.34 79.0478 174.609 95.1557 174.609 115.028V129.736Z" fill="#171C1B"/>
<path d="M127.333 205.493C83.1852 205.493 47.2682 169.932 47.2682 126.221C47.2682 82.51 83.1852 46.9486 127.333 46.9486C171.481 46.9486 207.398 82.51 207.398 126.221C207.398 169.932 171.481 205.493 127.333 205.493ZM127.333 50.1299C84.9578 50.1299 50.4813 84.265 50.4813 126.221C50.4813 168.177 84.9578 202.312 127.333 202.312C169.709 202.312 204.185 168.177 204.185 126.221C204.185 84.265 169.709 50.1299 127.333 50.1299Z" fill="#171C1B"/>
<path d="M32.5741 179.704L47.0652 170.601L52.7577 179.482L50.0587 181.178L46.3797 175.441L43.3059 177.371L46.7814 182.795L44.0824 184.492L40.6069 179.068L37.292 181.152L41.0567 187.027L38.3577 188.723L32.5795 179.704H32.5741Z" fill="#171C1B"/>
<path d="M41.3193 192.922L51.8315 191.13L54.3162 181.819L57.1706 184.91L55.4676 190.928L55.8318 191.326L62.0063 190.149L64.7802 193.155L55.0392 194.815L52.4794 205.016L49.6091 201.909L51.4512 195.006L51.071 194.592L44.0879 195.928L41.3139 192.922H41.3193Z" fill="#171C1B"/>
<path d="M57.0261 208.818L67.4472 195.154L72.4543 198.898C75.9244 201.49 76.6474 204.862 74.3982 207.816L74.1733 208.113C71.9509 211.029 68.4593 211.278 64.9945 208.685L63.0613 207.243L60.0999 211.124L57.0261 208.823V208.818ZM68.5129 200.09L65.0695 204.603L67.1527 206.156C68.5986 207.238 70.1408 206.989 71.1744 205.637C72.2347 204.242 72.0419 202.726 70.596 201.644L68.5129 200.09Z" fill="#171C1B"/>
<path d="M72.8288 219.747L80.7812 204.694L84.1978 206.465L77.8144 218.548L83.7694 221.634L82.2003 224.603L72.8288 219.752V219.747Z" fill="#171C1B"/>
<path d="M89.2478 218.856L89.3978 218.368C90.6348 214.339 94.9297 210.935 100.708 212.679C106.465 214.413 108.157 219.62 106.914 223.649L106.765 224.137C105.64 227.79 101.361 231.634 95.4277 229.842C89.4888 228.05 88.1232 222.509 89.2478 218.856ZM103.102 222.79C104.033 219.763 102.764 217.022 99.6583 216.083C96.5576 215.15 93.9818 216.73 93.05 219.757C92.1717 222.61 93.3713 225.5 96.4773 226.433C99.5779 227.366 102.229 225.638 103.102 222.785V222.79Z" fill="#171C1B"/>
<path d="M111.268 233.118L112.746 216.05L119.467 216.623C123.751 216.988 126.257 219.115 125.931 222.895L125.899 223.266C125.684 225.748 124.372 227.296 122.262 227.953L126.091 234.374L121.641 233.998L118.391 228.255L115.579 228.017L115.108 233.441L111.268 233.112V233.118ZM116.307 219.602L115.836 225.026L119.023 225.297C120.683 225.44 121.877 224.464 122.021 222.821C122.161 221.198 121.154 220.016 119.494 219.873L116.307 219.602Z" fill="#171C1B"/>
<path d="M130.67 234.386L134.402 216.878L140.593 216.194L148.331 232.435L144.358 232.875L142.51 228.84L135.382 229.624L134.499 233.962L130.67 234.381V234.386ZM141.107 225.812L138.258 219.593L137.396 219.688L136.041 226.369L141.112 225.812H141.107Z" fill="#171C1B"/>
<path d="M155.85 230.366L152.01 217.243L147.383 218.568L146.446 215.371L159.427 211.649L160.364 214.846L155.711 216.177L159.55 229.3L155.85 230.36V230.366Z" fill="#171C1B"/>
<path d="M169.495 225.722L162.571 210.176L166.1 208.634L173.024 224.179L169.495 225.722Z" fill="#171C1B"/>
<path d="M174.491 214.662L174.207 214.232C171.883 210.701 172.006 205.261 177.072 202C182.111 198.75 187.231 200.807 189.549 204.338L189.833 204.768C191.938 207.965 192.163 213.681 186.963 217.032C181.763 220.383 176.595 217.859 174.491 214.662ZM186.433 206.682C184.687 204.031 181.752 203.23 179.032 204.985C176.317 206.74 175.883 209.709 177.629 212.361C179.273 214.858 182.277 215.807 184.998 214.052C187.718 212.297 188.077 209.179 186.433 206.682Z" fill="#171C1B"/>
<path d="M199.896 207.095L187.552 195.293L191.943 190.791L206.525 195.839L206.756 195.606L196.661 185.956L199.178 183.379L211.522 195.176L207.098 199.715L192.516 194.667L192.286 194.9L202.38 204.55L199.901 207.095H199.896Z" fill="#171C1B"/>
<path d="M211.094 187.128L213.096 184.005C214.205 184.705 215.72 184.472 217.022 182.446C218.168 180.66 218.012 179.212 216.899 178.512C215.967 177.924 214.949 178.337 213.669 179.986L212.877 181.004C210.799 183.724 207.998 184.525 205.423 182.902C202.643 181.158 202.252 177.987 204.309 174.785C206.477 171.407 209.658 170.57 212.497 172.351L210.483 175.495C209.434 174.832 208.009 175.013 207.05 176.508C206.129 177.94 206.488 179.159 207.441 179.758C208.277 180.283 209.289 180.177 210.231 178.92L211.035 177.881C213.316 174.933 216.235 173.682 218.912 175.363C221.708 177.123 222.088 180.527 219.753 184.164C217.247 188.072 213.905 188.894 211.088 187.123L211.094 187.128Z" fill="#171C1B"/>
<path d="M221.962 141.944L220.934 146.931C220.764 147.754 221.3 148.558 222.132 148.726L227.169 149.745C228.001 149.913 228.813 149.381 228.982 148.558L230.011 143.571C230.181 142.747 229.644 141.944 228.812 141.775L223.775 140.757C222.944 140.589 222.132 141.12 221.962 141.944Z" fill="#171C1B"/>
<path d="M30.8972 140.756L25.8602 141.774C25.0285 141.943 24.492 142.746 24.6618 143.57L25.6902 148.557C25.86 149.38 26.6719 149.912 27.5035 149.743L32.5406 148.725C33.3722 148.557 33.9088 147.753 33.739 146.93L32.7105 141.943C32.5407 141.119 31.7289 140.588 30.8972 140.756Z" fill="#171C1B"/>
</g>
</g>
</svg>
